X: 10753
M: 6/8
L: 1/8
K: C
c2G e2d | cBA G2F | EFG Adc | BcA GAB |\
c2G e2d | cBA G2F | EGc AdB | c2e c2 H|]
(c/d/) |\
e2d f2e | d2c e2d | c2B Adc | (Bc)A Gcd |\
e2d f2e | d2c e2d | c2B AdB |[1 ccc c2c :|[1 cEF GA"^D.C."B |]


